src/ios-medical-outline.svg

<?xml version="1.0" encoding="utf-8"?>
<!-- Generated by IcoMoon.io -->
<!DOCTYPE svg PUBLIC "-//W3C//DTD SVG 1.1//EN" "http://www.w3.org/Graphics/SVG/1.1/DTD/svg11.dtd">
<svg version="1.1" xmlns="http://www.w3.org/2000/svg" xmlns:xlink="http://www.w3.org/1999/xlink" width="512" height="512" viewBox="0 0 512 512">
<path fill="#000000" d="M438 187.713l-31.927-55.426-118.073 68.287v-136.574h-64v136.574l-118.073-68.287-31.938 55.426 118.103 68.287-118.094 68.287 31.928 55.426 118.074-68.287v136.574h64v-136.574l118.072 68.287 31.939-55.426-118.103-68.287 118.092-68.287zM416.176 330.125l-15.963 27.866-128.213-73.991v148h-32v-148l-128.213 74-15.969-27.785 128.228-74.197-128.224-74.157 15.964-27.859 128.214 73.998v-148h32v148l128.213-74 15.969 27.785-128.228 74.179 128.222 74.161z"></path>
</svg>

<?xml version="1.0" encoding="utf-8"?>
<!-- Generator: Adobe Illustrator 16.2.1, SVG Export Plug-In . SVG Version: 6.00 Build 0)  -->
<!DOCTYPE svg PUBLIC "-//W3C//DTD SVG 1.1//EN" "http://www.w3.org/Graphics/SVG/1.1/DTD/svg11.dtd">
<svg version="1.1" id="Layer_1" xmlns="http://www.w3.org/2000/svg" xmlns:xlink="http://www.w3.org/1999/xlink" x="0px" y="0px"
	 width="512px" height="512px" viewBox="0 0 512 512" enable-background="new 0 0 512 512" xml:space="preserve">
<path d="M438,187.713l-31.927-55.426L288,200.574V64h-64v136.574l-118.073-68.287l-31.938,55.426L192.092,256L73.998,324.287
	l31.928,55.426L224,311.426V448h64V311.426l118.072,68.287l31.939-55.426L319.908,256L438,187.713z M416.176,330.125l-15.963,27.866
	L272,284v148h-32V284l-128.213,74l-15.969-27.785l128.228-74.197L95.822,181.861l15.964-27.859L240,228V80h32v148l128.213-74
	l15.969,27.785l-128.228,74.179L416.176,330.125z"/>
</svg>
